public/static/icons/navbar/ic_upload.svg

<svg height="24" viewBox="0 0 24 24" width="24" xmlns="http://www.w3.org/2000/svg"><g transform="translate(1 3)"><path d="m14.634552 9.5157318-2.4649963-2.51535032c-.001175-.00117494-.002182-.002182-.003357-.00335693-.002182-.00234988-.0045318-.00469971-.0068817-.00704959-.0016785-.0015106-.0031891-.00318909-.0046997-.0046997-.002182-.002182-.004364-.00419616-.006546-.00637815-.0013428-.00117494-.0025177-.00234988-.0036927-.00352477-.2281036-.22004701-.5382842-.35549929-.8801879-.35549929-.350296 0-.6671906.14199831-.896637.37161257l-2.53515624 2.53515625c-.49497985.49497983-.49497985 1.29762263 0 1.79277033.24757386.2475739.57202149.3712769.89646911.3712769.32427978 0 .64872745-.123703.89630127-.3712769l.28550723-.2855072c.03172301-.031723.08576962-.0092315.08576962.0355835v4.9576874c0 .7106628.58158881 1.309372 1.29208381 1.2959442.6888427-.013092 1.2432403-.5755462 1.2432403-1.2674103v-4.9402313c0-.0449829.054718-.0673065.0862732-.0352478l.2254181.2301178c.2482452.2532807.5767212.3803406.905365.3803406s.6574554-.1268921.9065399-.3816834c.4855804-.4961548.4651031-1.2976226-.020813-1.7932739z" opacity=".48"/><path d="m18.4748841 5.59164427c-.2009126-3.11708066-2.8000184-5.59164427-5.9662781-5.59164427-.5731965 0-1.141861.08157351-1.6902161.24237061-1.43273924.42079163-2.65869139 1.37197873-3.42726135 2.64375306-.44512939-.22155762-.93490603-.33720401-1.44046023-.33720401-1.63348388 0-2.9913635 1.20463565-3.21107484 2.7922974-.77259823.36087034-1.43055721.92047115-1.91462704 1.63130185-.53962708.79273988-.82496644 1.71791078-.82496644 2.67547607 0 2.58634952 2.02439879 4.67369082 4.60890199 4.75190732l4.31433105.0005036v-1.643219c-.06411745.0052032-.12873841.0077209-.19352725.0077209-.62556454 0-1.21369931-.2435455-1.65597532-.6859893-.91308594-.9129181-.91308594-2.39869695 0-3.31178289l2.53515625-2.53515625c.44210818-.44244385 1.03041078-.68615723 1.65614318-.68615723.6099548 0 1.1875153.23313907 1.6262665.65678405.0008392.00083927.0070496.00671387.0134277.01309206l2.4978943 2.54824831c.8957977.91392516.9055328 2.39282225.0216522 3.29634095-.4446258.4545288-1.0393066.7046203-1.6744384.7046203-.0478364 0-.0955048-.0013427-.1428376-.0041962v1.6398621l4.0999909-.0008392c2.407257-.0861053 4.2930145-2.0413513 4.2930145-4.45129394 0-2.11839297-1.489975-3.92610169-3.5251159-4.35679629z"/></g></svg>

<svg xmlns="http://www.w3.org/2000/svg" width="24" height="24" viewBox="0 0 24 24">
  <g transform="translate(1 3)">
    <path d="M14.634552,9.5157318 L12.1695557,7.00038148 C12.1683807,6.99920654 12.1673737,6.99819948 12.1661987,6.99702455 C12.1640167,6.99467467 12.1616669,6.99232484 12.159317,6.98997496 C12.1576385,6.98846436 12.1561279,6.98678587 12.1546173,6.98527526 C12.1524353,6.98309326 12.1502533,6.9810791 12.1480713,6.97889711 C12.1467285,6.97772217 12.1455536,6.97654723 12.1443786,6.97537234 C11.916275,6.75532533 11.6060944,6.61987305 11.2641907,6.61987305 C10.9138947,6.61987305 10.5970001,6.76187136 10.3675537,6.99148562 L7.83239746,9.52664187 C7.33741761,10.0216217 7.33741761,10.8242645 7.83239746,11.3194122 C8.07997132,11.5669861 8.40441895,11.6906891 8.72886657,11.6906891 C9.05314635,11.6906891 9.37759402,11.5669861 9.62516784,11.3194122 L9.91067507,11.033905 C9.94239808,11.002182 9.99644469,11.0246735 9.99644469,11.0694885 L9.99644469,16.0271759 C9.99644469,16.7378387 10.5780335,17.3365479 11.2885285,17.3231201 C11.9773712,17.3100281 12.5317688,16.7475739 12.5317688,16.0557098 L12.5317688,11.1154785 C12.5317688,11.0704956 12.5864868,11.048172 12.618042,11.0802307 L12.8434601,11.3103485 C13.0917053,11.5636292 13.4201813,11.6906891 13.7488251,11.6906891 C14.0774689,11.6906891 14.4062805,11.563797 14.655365,11.3090057 C15.1409454,10.8128509 15.1204681,10.0113831 14.634552,9.5157318 L14.634552,9.5157318 Z" opacity=".48"/>
    <path d="M18.4748841,5.59164427 C18.2739715,2.47456361 15.6748657,0 12.508606,0 C11.9354095,0 11.366745,0.0815735078 10.8183899,0.242370605 C9.38565066,0.663162242 8.15969851,1.61434934 7.39112855,2.88612367 C6.94599916,2.66456605 6.45622252,2.54891966 5.95066832,2.54891966 C4.31718444,2.54891966 2.95930482,3.75355531 2.73959348,5.34121706 C1.96699525,5.7020874 1.30903627,6.26168821 0.824966441,6.97251891 C0.285339355,7.76525879 0,8.69042969 0,9.64799498 C0,12.2343445 2.02439879,14.3216858 4.60890199,14.3999023 L8.92323304,14.4004059 L8.92323304,12.7571869 C8.85911559,12.7623901 8.79449463,12.7649078 8.72970579,12.7649078 C8.10414125,12.7649078 7.51600648,12.5213623 7.07373047,12.0789185 C6.16064453,11.1660004 6.16064453,9.68022155 7.07373047,8.76713561 L9.60888672,6.23197936 C10.0509949,5.78953551 10.6392975,5.54582213 11.2650299,5.54582213 C11.8749847,5.54582213 12.4525452,5.7789612 12.8912964,6.20260618 C12.8921356,6.20344545 12.898346,6.20932005 12.9047241,6.21569824 L15.4026184,8.76394655 C16.2984161,9.67787171 16.3081512,11.1567688 15.4242706,12.0602875 C14.9796448,12.5148163 14.384964,12.7649078 13.7498322,12.7649078 C13.7019958,12.7649078 13.6543274,12.7635651 13.6069946,12.7607116 L13.6069946,14.4005737 L17.7069855,14.3997345 C20.1142425,14.3136292 22,12.3583832 22,9.94844056 C22,7.83004759 20.510025,6.02233887 18.4748841,5.59164427 Z"/>
  </g>
</svg>
